numeric-9.svg

<svg fill="currentColor" viewBox="0 0 24 24"><path d="M13 17a2 2 0 0 0 2-2V9a2 2 0 0 0-2-2h-2a2 2 0 0 0-2 2v2a2 2 0 0 0 2 2h2v2H9v2zm0-6h-2V9h2z"/></svg>

<svg  viewBox="0 0 24 24" fill="currentColor"><path  d="M13,17A2,2 0 0,0 15,15V9A2,2 0 0,0 13,7H11A2,2 0 0,0 9,9V11A2,2 0 0,0 11,13H13V15H9V17H13M13,11H11V9H13V11Z"/></svg>
